img/Icon-1.svg

<svg width="42" height="40" viewBox="0 0 42 40" fill="none" xmlns="http://www.w3.org/2000/svg">
<rect opacity="0.1" width="42" height="40" rx="20" fill="#5A7184"/>
<path d="M27.6771 17.0833C28.3021 16.6145 28.8646 16.052 29.3021 15.3958C28.7396 15.6458 28.0833 15.8333 27.4271 15.8958C28.1146 15.4895 28.6146 14.8645 28.8646 14.0833C28.2396 14.4583 27.5208 14.7395 26.8021 14.8958C26.1771 14.2395 25.3333 13.8645 24.3958 13.8645C22.5833 13.8645 21.1146 15.3333 21.1146 17.1458C21.1146 17.3958 21.1458 17.6458 21.2083 17.8958C18.4896 17.7395 16.0521 16.427 14.4271 14.4583C14.1458 14.927 13.9896 15.4895 13.9896 16.1145C13.9896 17.2395 14.5521 18.2395 15.4583 18.8333C14.9271 18.802 14.3958 18.677 13.9583 18.427V18.4583C13.9583 20.052 15.0833 21.3645 16.5833 21.677C16.3333 21.7395 16.0208 21.802 15.7396 21.802C15.5208 21.802 15.3333 21.7708 15.1146 21.7395C15.5208 23.052 16.7396 23.9895 18.1771 24.0208C17.0521 24.8958 15.6458 25.427 14.1146 25.427C13.8333 25.427 13.5833 25.3958 13.3333 25.3645C14.7708 26.302 16.4896 26.8333 18.3646 26.8333C24.3958 26.8333 27.6771 21.8645 27.6771 17.5208C27.6771 17.3645 27.6771 17.2395 27.6771 17.0833Z" fill="#5A7184"/>
</svg>

<svg width="42" height="40" fill="none" xmlns="http://www.w3.org/2000/svg"><rect opacity=".1" width="42" height="40" rx="20" fill="#5A7184"/><path d="M27.677 17.083a6.952 6.952 0 0 0 1.625-1.687 6.15 6.15 0 0 1-1.875.5 3.206 3.206 0 0 0 1.438-1.813 6.932 6.932 0 0 1-2.063.813 3.281 3.281 0 0 0-2.406-1.032 3.28 3.28 0 0 0-3.281 3.282c0 .25.03.5.093.75a9.52 9.52 0 0 1-6.78-3.438 3.191 3.191 0 0 0-.438 1.656c0 1.125.562 2.125 1.468 2.72-.53-.032-1.062-.157-1.5-.407v.031a3.285 3.285 0 0 0 2.625 3.219c-.25.063-.562.125-.843.125-.22 0-.407-.031-.625-.063a3.265 3.265 0 0 0 3.062 2.282 6.597 6.597 0 0 1-4.062 1.406c-.282 0-.532-.031-.782-.063 1.438.938 3.157 1.47 5.032 1.47 6.03 0 9.312-4.97 9.312-9.313v-.438z" fill="#5A7184"/></svg>
